X: 73
T: Blanchland Races
S:Northumbrian Minstrelsy
M:C
L:1/8
K:G
D !segno!|\
G2 B/A/G dGBG | dGgG fGeG |
dG B/A/G dGBG | FDAD BDAD |
G2 B/A/G dGBG | dGgG fGeG |
dedB dgdB | AGAB G2G H :: G |
F2 F/E/D ADFD | ADBD cDAD |
G2 B/A/G dGBG | dGgG fGeG |
dG B/A/G gGeG | dG B/A/G gGeG |
dBed cBAG | FGAG "DaCapo" FDEF !segno!:|
